X: 18137
T: Humours Of Castlefin, The
R: reel
M: 4/4
K: Gmajor
dc|BE PE2 BEFB|AD D2 (3EFG Ac|BE PE2 BE AF|GBAF EFGA|
BEPE2 BEFB|AD D2 (3EFG Ac|BE PE2 BE AF|GBAF EFGA|
B2 eB egfe|defg afed|B2eB efge|agfa geed|
B2 eB egfe|defg afdf|efga bagf|(3efg fd e4||

